symbols/web/house/materialsymbolsrounded/house_wght700_48px.svg

<svg xmlns="http://www.w3.org/2000/svg" height="48" width="48"><path d="M22.05 40.55H11.8q-1 0-1.675-.675T9.45 38.2V24.55h-3.8q-.8 0-1.1-.75-.3-.75.3-1.35l17.6-15.8q.65-.6 1.55-.6t1.55.6l7.9 6.9V10.8q0-1 .675-1.675T35.8 8.45h.4q1 0 1.675.675t.675 1.675v7.5l4.6 4.15q.6.6.325 1.35-.275.75-1.125.75h-3.8V38.2q0 1-.675 1.675t-1.675.675H25.95v-11.7h-3.9Zm-8.5-4.1h4.4v-9.4q0-1 .675-1.675T20.3 24.7h7.4q1 0 1.675.675t.675 1.675v9.4h4.4V20.2L24 10.75 13.55 20.2Zm5.9-16h9.1q0-1.8-1.35-3.025Q25.85 16.2 24 16.2t-3.2 1.225q-1.35 1.225-1.35 3.025Zm.85 4.25h7.4-7.4Z"/></svg>

<svg xmlns="http://www.w3.org/2000/svg" height="48" width="48"><path d="M22.05 40.55H11.8Q10.8 40.55 10.125 39.875Q9.45 39.2 9.45 38.2V24.55H5.65Q4.85 24.55 4.55 23.8Q4.25 23.05 4.85 22.45L22.45 6.65Q23.1 6.05 24 6.05Q24.9 6.05 25.55 6.65L33.45 13.55V10.8Q33.45 9.8 34.125 9.125Q34.8 8.45 35.8 8.45H36.2Q37.2 8.45 37.875 9.125Q38.55 9.8 38.55 10.8V18.3L43.15 22.45Q43.75 23.05 43.475 23.8Q43.2 24.55 42.35 24.55H38.55V38.2Q38.55 39.2 37.875 39.875Q37.2 40.55 36.2 40.55H25.95V28.85Q25.95 28.85 25.95 28.85Q25.95 28.85 25.95 28.85H22.05Q22.05 28.85 22.05 28.85Q22.05 28.85 22.05 28.85ZM13.55 36.45H17.95V27.05Q17.95 26.05 18.625 25.375Q19.3 24.7 20.3 24.7H27.7Q28.7 24.7 29.375 25.375Q30.05 26.05 30.05 27.05V36.45H34.45V20.2L24 10.75L13.55 20.2ZM19.45 20.45H28.55Q28.55 18.65 27.2 17.425Q25.85 16.2 24 16.2Q22.15 16.2 20.8 17.425Q19.45 18.65 19.45 20.45ZM20.3 24.7H24H27.7H20.3Z"/></svg>
